X: 05019
T: DEANNA'S MARCH
C: Bob McQuillen 26 April 81
B: Bob's Note Book 5 #19
%R: march
Z: 2021 John Chambers <jc:trillian.mit.edu>
M: C
L: 1/4
K: D
A,B, \
| DA,D>E | DEFA | BA d>B | AF E<D | d>c BA | BAF>E | FB B>d | BA FE |
| DA,D>E | FE FG | F>E D>C | DE F<A | d>e dc |BA d>B | AF EF/E/ | D2 |]
[| de \
| f2 f>d | ed f>e | d>e d>c | BA B<d | A>B AF | E D2 E | FB BA | B2 de |
| f2 f>d | ed e<f | d>e dc | BA FE | FB B>A | BA d>B |AF E>D | D2 |]
%%begintext align
%% Deanna Stiles is
%% that great silver flute payer who lives up in
%% Danbury, N.H., and this is her tune, as I guess
%% you can tell! (By the way, she's also Amelia's mummy!)
%%endtext

%%sep 1 1 500

%%sep 1 1 500

